X:1
T: I know what you like
C:
R:Jig
Q:180
K:G
M:6/8
L:1/16
D2|D2G2G2 G2A2G2|F2G2A2 c4A2|B2d2g2 e2c2A2|B2G2d2 A2F2D2|D2G2G2 G2A2G2|F2G2A2 c2B2A2|B2d2g2 e2c2A2|B2G2G2 G4D2|
D2G2G2 G2A2G2|F2G2A2 c4A2|B2d2g2 e2c2A2|B2G2d2 A2F2D2|D2G2G2 G2A2G2|F2G2A2 c2B2A2|B2d2g2 e2c2A2|B2G2G2 G4c2|
Bcd2ef g2d2c2|B2G2G2 G2A2G2|F2G2A2 c2A2G2|F2D2D2 D4c2|Bcd2ef g2d2c2|B2G2B2 c2B2A2|B2d2g2 e2c2A2|B2G2G2 G4c2|
Bcd2ef g2d2c2|B2G2G2 G2A2G2|F2G2A2 c2A2G2|F2D2D2 D4c2|Bcd2ef g2d2c2|B2G2B2 c2B2A2|B2d2g2 e2c2A2|B2G2G2 G4||
